X: 21502
T: Cadger Watty
%R: reel
B: James Oswald "The Caledonian Pocket Companion" v.2 p.150 #2
Z: 2018 John Chambers <jc:trillian.mit.edu>
M: C|
L: 1/8
K: A
|: "_Brisk"\
Tc2(BA) (f/g/)ae2 | Tc2(BA) fBB2 |\
Tc2(BA) (f/g/)ae2 | Tc2(BA) FAA2 :|
|:\
(f/g/)ae2 afec | Aaec fBB2 |\
(f/g/)ae2 fdca | ec(TBA) FAA2 :|
